X:195
T:The Sweets of May
M:12/8
L:1/8
K:D
a2 g|f2 d edc d2 A Aag|g2 d def gfg a2 g|f2 d edc d2 A2 Aag|\
|1 f2 d edc d3 a2 g :|2 f2 d edc (d3 d3) ||
efe e2 d2 B2 c d3|e2 e g2 a b2 a g2 f|\
efe e2 d B2 c d3|1 e2 e fed (e3 e3) :|2 e2 e fed e3 efg ||
a3 a3 A3 A3 |ggg g3 A3 ABc|d2 c d2 e g2 e f2 g|a2 a ABc (d3 d3) :|
